X:1
T:Trädet
T:W. Peterson-Berger (1867-1942)
T:Björnstjerne Björnson
T:Trädet
T:Ur "Arne"
T:©CPDL Edition may be freely distributed, duplicated, performed and recorded PA Aglert
T:©CPDL Edition may be freely distributed, duplicated, performed and recorded PA Aglert
T:©CPDL Edition may be freely distributed, duplicated, performed and recorded PA Aglert
T:©CPDL Edition may be freely distributed, duplicated, performed and recorded PA Aglert
C:W. Peterson-Berger (1867-1942)
Z:©CPDL Edition may be freely distributed, duplicated, performed and recorded
Z:PA Aglert
%%score [ 1 2 3 4 ]
L:1/8
Q:1/4=90
M:6/8
K:F
V:1 treble nm="S"
V:2 treble nm="A"
V:3 treble-8 nm="T"
V:4 bass nm="B"
V:1
"^Livligt"!mf! c>dc BcB | A>BA G2 A/G/ |!<(! FA!<)!c dAc | =B>AG c2!f! c | d>dB/d/ f2 d | %5
w: Trä- det stod fär- digt med|knop- par och grönt. "Ska jag|ta dem?" sa fros- ten, "det|vo- re så skönt." "Nej|kä- re, låt dem stå, tills|
w: Trä- det fick blom- mor vid|fåg- lar- nas sång. "Ska jag|ta dem?" sa vin- den och|gjor- de ett språng. "Nej|kä- re, låt dem stå, tills|
w: Trä- det fick bär un- der|sol- ög- ats glöd. "Ska jag|ta dem?" sa flic- kan, så|ung och så röd. "Ja|kä- ra, du kan ta så|
 c>dc/d/ c2 c | c>cA/c/ e2 c | B>cB/c/ B2 B | B2 B A2 A | G3- G2 A | F2 F E2 E | D3- D2 D | %12
w: blom jag hun- nit få, nej|kä- re, låt dem stå, tills|blom jag hun- nit få, nej|kä- re, låt dem|stå, * tills|blom jag hun- nit|få", * bad|
w: bär det blir ock- så, nej|kä- re, låt dem stå, tills|bär det blir ock- så, nej|kä- re, låt dem|stå, * tills|bär det blir ock-|så," * bad|
w: mång- a du vill ha, ja|kä- ra, du kan ta så|mång- a du vill ha, ja|kä- ra, du kan|ta * så|mång- a du vill|ha," * sa|
 C>!<(!FA!<)! c!>(!e!>)!d | c3 G2!>(! A!>)! |!p! F6- | F3- F z z |] %16
w: trä- det och skalv, "än- nu|är det ej|lönt."||
w: trä- det och bjöd av sin|väl- lukt ett|fång.||
w: trä- det och gre- nen det|dig- nan- de|bjöd.||
V:2
!mf! A>BA GAG | F>EF E2 D/E/ |!<(! FF!<)!F FFF | F>FF E2!f! G | B2 B B2 B | G3- G2 G | F2 F F2 F | %7
w: Trä- det stod fär- digt med|knop- par och grönt. "Ska jag|ta dem?" sa fros- ten, "det|vo- re så skönt." "Nej|kä- re, låt dem|stå, * tills|blom jag hun- nit|
w: Trä- det fick blom- mor vid|fåg- lar- nas sång. "Ska jag|ta dem?" sa vin- den och|gjor- de ett språng. "Nej|kä- re, låt dem|stå, * tills|bär det blir ock-|
w: Trä- det fick bär un- der|sol- ög- ats glöd. "Ska jag|ta dem?" sa flic- kan, så|ung och så röd. "Ja|kä- ra, du kan|ta * så|mång- a du vill|
 F3- F2 F | E2 E F2 F | E3- E2 E | D2 D D2 C | B,3- B,2 B, | C>!<(!A,C!<)! F!>(!F!>)!F | %13
w: få, * nej|kä- re, låt dem|stå, * tills|blom jag hun- nit|få", * bad|trä- det och skalv, "än- nu|
w: så, * nej|kä- re, låt dem|stå, * tills|bär det blir ock-|så," * bad|trä- det och bjöd av sin|
w: ha, * ja|kä- ra, du kan|ta * så|mång- a du vill|ha," * sa|trä- det och gre- nen det|
 E3 D2!>(! E!>)! |!p! F2 C D>_DD | C3- C z z |] %16
w: är det ej|lönt, än är det ej|lönt." *|
w: väl- lukt ett|fång, sin väl- lukt ett|fång. *|
w: dig- nan- de|bjöd, det dig- nan- de|bjöd. *|
V:3
!mf! f>ef ede | c>dc B2 c/B/ |!<(! Ac!<)!A Ace | d>c=B c2!f! e | f>fd/f/ d2 f | e>fe/f/ e2 e | %6
w: Trä- det stod fär- digt med|knop- par och grönt. "Ska jag|ta dem?" sa fros- ten, "det|vo- re så skönt." "Nej|kä- re, låt dem stå, tills|blom jag hun- nit få, nej|
w: Trä- det fick blom- mor vid|fåg- lar- nas sång. "Ska jag|ta dem?" sa vin- den och|gjor- de ett språng. "Nej|kä- re, låt dem stå, tills|bär det blir ock- så, nej|
w: Trä- det fick bär un- der|sol- ög- ats glöd. "Ska jag|ta dem?" sa flic- kan, så|ung och så röd. "Ja|kä- ra, du kan ta så|mång- a du vill ha, ja|
 e>ec/e/ c2 e | d>ed/e/ d2 d | c2 c c2 c | c3- c2 A | A2 A A2 G | F3- F2 F | %12
w: kä- re, låt dem stå, tills|blom jag hun- nit få, nej|kä- re, låt dem|stå, * tills|blom jag hun- nit|få", * bad|
w: kä- re, låt dem stå, tills|bär det blir ock- så, nej|kä- re, låt dem|stå, * tills|bär det blir ock-|så," * bad|
w: kä- ra, du kan ta så|mång- a du vill ha, ja|kä- ra, du kan|ta * så|mång- a du vill|ha," * sa|
 A>!<(!cF!<)! A!>(!c!>)!=B | !courtesy!_B3 B2!>(! B!>)! |!p! A2 A B>BB | A3- A z z |] %16
w: trä- det och skalv, "än- nu|är det ej|lönt, än är det ej|lönt." *|
w: trä- det och bjöd av sin|väl- lukt ett|fång, sin väl- lukt ett|fång. *|
w: trä- det och gre- nen det|dig- nan- de|bjöd, det dig- nan- de|bjöd. *|
V:4
!mf! F,>F,F, F,F,F, | F,>F,F, F,2 F,/F,/ |!<(! F,E,!<)!_E, D,D,D, | G,>G,G, C,2!f! C | %4
w: Trä- det stod fär- digt med|knop- par och grönt. "Ska jag|ta dem?" sa fros- ten, "det|vo- re så skönt." "Nej|
w: Trä- det fick blom- mor vid|fåg- lar- nas sång. "Ska jag|ta dem?" sa vin- den och|gjor- de ett språng. "Nej|
w: Trä- det fick bär un- der|sol- ög- ats glöd. "Ska jag|ta dem?" sa flic- kan, så|ung och så röd. "Ja|
 B,2 B, B,2 B, | B,3- B,2 B, | A,2 A, A,2 A, | A,3- A,2 A, | G,2 G, F,2 F, | C,3- C,2 ^C, | %10
w: kä- re, låt dem|stå, * tills|blom jag hun- nit|få, * nej|kä- re, låt dem|stå, * tills|
w: kä- re, låt dem|stå, * tills|bär det blir ock-|så, * nej|kä- re, låt dem|stå, * tills|
w: kä- ra, du kan|ta * så|mång- a du vill|ha, * ja|kä- ra, du kan|ta * så|
 D,2 D, A,,2 A,, | B,,3- B,,2 G,, | C,>!<(!C,C,!<)! C,!>(!C,!>)!C, | C,3 C,2!>(! C,!>)! |!p! F,6- | %15
w: blom jag hun- nit|få", * bad|trä- det och skalv, "än- nu|är det ej|lönt."|
w: bär det blir ock-|så," * bad|trä- det och bjöd av sin|väl- lukt ett|fång.|
w: mång- a du vill|ha," * sa|trä- det och gre- nen det|dig- nan- de|bjöd.|
 F,3- F, z z |] %16
w: |
w: |
w: |

